X:30
T:RAKSMAL- The Rakes of Mallow
S:Riley's Flute Melodies, I (1814)
Q:1/4=40
L:1/4
M:2/4
K:G
G/B/G/B/|G/B/ {c/}G/A/4G/4|F/A/F/A/|F/A/ {B/}(A/G/4F/4)|\
G/B/G/B/|G/B/ d3/4B/4|c/4B/4A/4G/4 F/A/|GG/z/::g/f/4e/4 d/c/|\
B/c/d|g/f/4e/4 d/c/|B/g/A|g/f/4e/4 d/c/|B/c/d|\
c/4B/4A/4G/4 F/A/|GG/z/:|]

